svgs/io.svg

<svg xmlns="http://www.w3.org/2000/svg" viewBox="0 0 192 192"><path d="M122.896 53.19a52.427 52.427 0 0 0-30.919 10.097 52.867 52.867 0 0 0-19.11 26.436 53.138 53.138 0 0 0 0 32.676 52.867 52.867 0 0 0 19.11 26.436 52.427 52.427 0 0 0 30.919 10.097 52.492 52.492 0 0 0 37.197-15.485c9.861-9.912 15.407-23.369 15.407-37.386 0-14.017-5.546-27.474-15.407-37.386a52.492 52.492 0 0 0-37.197-15.485ZM29.874 76.787h0c3.545 0 6.949 1.41 9.456 3.917a13.382 13.382 0 0 1 3.917 9.457v55.397c0 3.546-1.41 6.95-3.917 9.457a13.378 13.378 0 0 1-9.456 3.917h0c-3.546 0-6.95-1.41-9.457-3.917a13.379 13.379 0 0 1-3.917-9.457V90.161c0-3.545 1.41-6.949 3.917-9.457a13.379 13.379 0 0 1 9.457-3.917m0-43.719c-2.83-.009-5.59.884-7.883 2.552a13.437 13.437 0 0 0-4.876 6.728 13.508 13.508 0 0 0 0 8.323 13.437 13.437 0 0 0 4.876 6.728 13.327 13.327 0 0 0 7.883 2.553c3.546 0 6.95-1.418 9.457-3.937a13.484 13.484 0 0 0 3.917-9.505c0-3.564-1.41-6.985-3.917-9.505a13.344 13.344 0 0 0-9.457-3.937Z" fill="none" stroke="#000" stroke-width="12" stroke-linecap="round" stroke-linejoin="round"/></svg>

<svg
    xmlns="http://www.w3.org/2000/svg"
    viewBox="0 0 192 192"
    id="vector">
    <path
        id="path"
        d="M 122.896 53.19 C 111.789 53.19 100.962 56.725 91.977 63.287 C 82.991 69.849 76.299 79.106 72.867 89.723 C 69.435 100.34 69.435 111.782 72.867 122.399 C 76.299 133.016 82.991 142.273 91.977 148.835 C 100.962 155.397 111.789 158.932 122.896 158.932 C 136.842 158.932 150.231 153.358 160.093 143.447 C 169.954 133.535 175.5 120.078 175.5 106.061 C 175.5 92.044 169.954 78.587 160.093 68.675 C 150.231 58.764 136.842 53.19 122.896 53.19 Z M 29.874 76.787 L 29.874 76.787 C 33.419 76.787 36.823 78.197 39.33 80.704 C 41.837 83.212 43.247 86.616 43.247 90.161 L 43.247 145.558 C 43.247 149.104 41.837 152.508 39.33 155.015 C 36.823 157.522 33.419 158.932 29.874 158.932 L 29.874 158.932 C 26.328 158.932 22.924 157.522 20.417 155.015 C 17.91 152.508 16.5 149.104 16.5 145.558 L 16.5 90.161 C 16.5 86.616 17.91 83.212 20.417 80.704 C 22.924 78.197 26.328 76.787 29.874 76.787 M 29.874 33.068 C 27.044 33.059 24.284 33.952 21.991 35.62 C 19.699 37.287 17.991 39.643 17.115 42.348 C 16.239 45.052 16.239 47.967 17.115 50.671 C 17.991 53.376 19.699 55.732 21.991 57.399 C 24.284 59.067 27.044 59.961 29.874 59.952 C 33.42 59.952 36.824 58.534 39.331 56.015 C 41.838 53.495 43.248 50.073 43.248 46.51 C 43.248 42.946 41.838 39.525 39.331 37.005 C 36.824 34.485 33.42 33.068 29.874 33.068 Z"
        fill="none"
        stroke="#000000"
        stroke-width="12"
        stroke-linecap="round"
        stroke-linejoin="round"/>
</svg>
